X:1
T:Title
%%score { ( 1 2 ) | ( 3 4 ) }
L:1/8
Q:1/4=106
M:4/4
K:F
V:1 treble nm="Grand Piano"
V:2 treble 
V:3 bass 
V:4 bass 
V:1
 z4 [DFA]4[K:bass] | z4 [A,EG]4[K:bass] | z4 [DF]4 | z4[K:bass] [G,A,E]4 | z4 [DFA]4[K:bass] | %5
 z4 [A,EG]4[K:bass] | z4 [DF]4 | z4[K:bass] [G,A,E]4 | D2 E>[K:treble]F [B,DG]2 z E | %9
 [DFA]2 F>E D4 | [DFA]2 G>[DF] [FA][FA] G>[DF] | [DFA]2 (3FGA G>F E2 | %12
 [^CEG]2 F>E [EG][EG] F>[CE] | [^CEG]2 (3EFG F>E D2 | [DFA]2 G>[DF] [FA][FA] G>[DF] | %15
 [DFA]2 (3FGA G>F E2 | [^CEG]2 F>E [EG][EG] F>[CE] | [^CEG]2 (3EFG F>E D2 | %18
 [G,A,^C]2 D>E [A,DF]2 [G,A,CE]2 | [^CEA]2 F>E [A,D]4 |] %20
V:2
 D2 F>A z z/[K:bass] E,/ F,2 | E2 F>G z z/[K:bass] B,,/ ^C,2 | D2 E>F A,->[F,A,] A,2 | %3
 ^C2 D>E[K:bass] z z/ ^C,/ E,2 | D2 F>A z z/[K:bass] E,/ F,2 | E2 F>G z z/[K:bass] B,,/ ^C,2 | %6
 D2 E>F A,->[F,A,] A,2 | ^C2 D>E[K:bass] z z/ ^C,/ E,2 | x7/2[K:treble] x9/2 | x8 | x8 | x8 | %12
 A,4 z4 | A,4 z4 | x8 | x8 | A,4 z4 | A,4 z4 | x8 | x8 |] %20
V:3
 [D,,D,]4 [D,,D,]>E,, F,,2 | [^C,,^C,]4 [A,,,A,,]>B,,, C,,2 | [D,,D,]4 [D,,D,]>F,, A,,2 | %3
 [A,,,A,,]4 [A,,,A,,]>^C,, E,,2 | [D,,D,]4 [D,,D,]>E,, F,,2 | [^C,,^C,]4 [A,,,A,,]>B,,, C,,2 | %6
 [D,,D,]4 [D,,D,]>F,, A,,2 | [A,,,A,,]4 [A,,,A,,]>^C,, E,,2 | [D,,D,]3- [D,,D,]/[D,,D,]/ z2 FG,, | %9
 [D,,D,]3- [D,,D,]/A,,/ [D,A,]4 | z2 E>A,, .[D,,D,]2 E>A,, | z2 (3F,G,A, G,>F, E,2 | %12
 z2 D>[E,^C] .[A,,A,]2 D>E, | A,,2 (3E,F,G, F,>E, D,2 | z2 E>A,, .[D,,D,]2 E>A,, | %15
 z2 (3F,G,A, G,>F, E,2 | z2 D>[E,^C] .[A,,A,]2 D>E, | A,,2 (3E,F,G, F,>E, D,2 | %18
 [A,,,A,,]3- [A,,,A,,]/A,,/ [D,,D,]2 [A,,,A,,]2 | [A,,,A,,]3- [A,,,A,,]/[E,,^C,]/ [D,,D,]4 |] %20
V:4
 x8 | x8 | x8 | x8 | x8 | x8 | x8 | x8 | z4 G,,4 | x8 | [D,,D,]4 z [D,,D,]3 | D,4 z4 | %12
 A,,4 z [A,,A,]3 | x8 | [D,,D,]4 z [D,,D,]3 | D,4 z4 | A,,4 z [A,,A,]3 | x8 | x8 | x8 |] %20

